src/objects/clothing/1F45B.svg

<svg id="emoji" viewBox="0 0 72 72" xmlns="http://www.w3.org/2000/svg">
  <g id="grid">
    <path fill="#b3b3b3" d="M68,4V68H4V4H68m4-4H0V72H72V0Z"/>
    <path fill="none" stroke="#00a5ff" stroke-miterlimit="10" stroke-width="0.1" d="M12.923,10.9583H59.0769A1.9231,1.9231,0,0,1,61,12.8814V59.0352a1.9231,1.9231,0,0,1-1.9231,1.9231H12.9231A1.9231,1.9231,0,0,1,11,59.0352V12.8813A1.923,1.923,0,0,1,12.923,10.9583Z"/>
    <rect x="16" y="4" rx="2.2537" width="40" height="64" fill="none" stroke="#00a5ff" stroke-miterlimit="10" stroke-width="0.1"/>
    <rect x="16" y="4" rx="2.2537" width="40" height="64" transform="translate(72) rotate(90)" fill="none" stroke="#00a5ff" stroke-miterlimit="10" stroke-width="0.1"/>
    <circle cx="36" cy="36" r="29" fill="none" stroke="#00a5ff" stroke-miterlimit="10" stroke-width="0.1"/>
  </g>
  <g id="color">
    <path fill="#D0CFCE" stroke="none" d="M14.5371,29.8485V24.594c0,0,11.7262-1.1745,21.4627-1.1745s21.4784,1.1745,21.4784,1.1745v5.2545"/>
    <path fill="#8967AA" stroke="none" stroke-linecap="round" stroke-linejoin="round" stroke-miterlimit="10" stroke-width="2" d="M36,27.8933H18.2944C18.2944,38.8402,11,41.9357,11,48.999s11.1929,12.2992,25,12.2992s25-5.2359,25-12.2992 s-7.2944-10.1588-7.2944-21.1057H36z"/>
    <path fill="#B399C8" stroke="none" d="M44.0272,27.8933c0,0,9.5808,9.9741,5.9505,31.3757C49.6967,60.9256,61,53.4135,61,48.999 c0-7.0633-7.2944-10.1588-7.2944-21.1057H44.0272"/>
    <circle cx="37.6921" cy="14.942" r="3.937" fill="#D0CFCE" stroke="none"/>
    <circle cx="33.012" cy="13.7019" r="3" fill="#D0CFCE" stroke="none" stroke-linecap="round" stroke-linejoin="round" stroke-miterlimit="10" stroke-width="2"/>
    <path fill="#D0CFCE" stroke="none" stroke-linecap="round" stroke-linejoin="round" stroke-miterlimit="10" stroke-width="2" d="M38.5215,12.0002c1.5921,0.4585,2.5111,2.1209,2.0526,3.7131s-2.1209,2.5111-3.7131,2.0526"/>
  </g>
  <g id="hair"/>
  <g id="skin"/>
  <g id="skin-shadow"/>
  <g id="line">
    <path fill="none" stroke="#000000" stroke-linecap="round" stroke-linejoin="round" stroke-miterlimit="10" stroke-width="2" d="M36,27.8933H18.2944C18.2944,38.8402,11,41.9357,11,48.999s11.1929,12.2992,25,12.2992s25-5.2359,25-12.2992 s-7.2944-10.1588-7.2944-21.1057H36z"/>
    <path fill="none" stroke="#000000" stroke-linecap="round" stroke-linejoin="round" stroke-miterlimit="10" stroke-width="2" d="M14.5371,28.8933v-4.4738c0,0,11.7262-1,21.4627-1s21.4784,1,21.4784,1v4.4738"/>
    <polyline fill="none" stroke="#000000" stroke-linecap="round" stroke-linejoin="round" stroke-miterlimit="10" stroke-width="2" points="18.6989,20.362 24.9529,20.362 28.355,17.396"/>
    <polyline fill="none" stroke="#000000" stroke-linecap="round" stroke-linejoin="round" stroke-miterlimit="10" stroke-width="2" points="50.1012,20.362 43.8472,20.362 42.1461,18.879"/>
    <circle cx="33.012" cy="13.7019" r="3" fill="none" stroke="#000000" stroke-linecap="round" stroke-linejoin="round" stroke-miterlimit="10" stroke-width="2"/>
    <path fill="none" stroke="#000000" stroke-linecap="round" stroke-linejoin="round" stroke-miterlimit="10" stroke-width="2" d="M38.5215,12.0002c1.5921,0.4585,2.5111,2.1209,2.0526,3.7131s-2.1209,2.5111-3.7131,2.0526"/>
    <path fill="none" stroke="#000000" stroke-linecap="round" stroke-linejoin="round" stroke-miterlimit="10" stroke-width="2" d="M36,27.8933H18.2944C18.2944,38.8402,11,41.9357,11,48.999s11.1929,12.2992,25,12.2992s25-5.2359,25-12.2992 s-7.2944-10.1588-7.2944-21.1057H36z"/>
  </g>
</svg>

<svg viewBox="0 0 72 72" xmlns="http://www.w3.org/2000/svg"><path fill="#b3b3b3" d="M68 4v64H4V4h64m4-4H0v72h72V0z"/><path fill="none" stroke="#00a5ff" stroke-miterlimit="10" stroke-width=".1" d="M12.923 10.958h46.154A1.923 1.923 0 0161 12.881v46.154a1.923 1.923 0 01-1.923 1.923H12.923A1.923 1.923 0 0111 59.035V12.881a1.923 1.923 0 011.923-1.923z"/><rect x="16" y="4" rx="2.254" width="40" height="64" fill="none" stroke="#00a5ff" stroke-miterlimit="10" stroke-width=".1"/><rect x="16" y="4" rx="2.254" width="40" height="64" transform="rotate(90 36 36)" fill="none" stroke="#00a5ff" stroke-miterlimit="10" stroke-width=".1"/><circle cx="36" cy="36" r="29" fill="none" stroke="#00a5ff" stroke-miterlimit="10" stroke-width=".1"/><g stroke-linecap="round" stroke-miterlimit="10" stroke-width="6" stroke="#fff" fill="none" stroke-linejoin="round"><path d="M36 27.893H18.294C18.294 38.84 11 41.936 11 49s11.193 12.3 25 12.3S61 56.063 61 49s-7.294-10.159-7.294-21.106H36z"/><path d="M14.537 28.893V24.42s11.726-1 21.463-1 21.478 1 21.478 1v4.474m-38.779-8.532h6.254l3.402-2.966m21.746 2.966h-6.254l-1.7-1.483"/><circle cx="33.012" cy="13.702" r="3"/><path d="M38.522 12a3 3 0 01-1.661 5.766M36 27.893H18.294C18.294 38.84 11 41.936 11 49s11.193 12.3 25 12.3S61 56.063 61 49s-7.294-10.159-7.294-21.106H36z"/></g><path fill="#D0CFCE" d="M14.537 29.849v-5.255S26.263 23.419 36 23.419s21.478 1.175 21.478 1.175v5.255"/><path fill="#8967AA" d="M36 27.893H18.294C18.294 38.84 11 41.936 11 49s11.193 12.3 25 12.3S61 56.063 61 49s-7.294-10.159-7.294-21.106H36z"/><path fill="#B399C8" d="M44.027 27.893s9.581 9.974 5.95 31.376C49.698 60.926 61 53.414 61 48.999c0-7.063-7.294-10.159-7.294-21.106h-9.679"/><circle cx="37.692" cy="14.942" r="3.937" fill="#D0CFCE"/><circle cx="33.012" cy="13.702" r="3" fill="#D0CFCE"/><path fill="#D0CFCE" d="M38.522 12a3 3 0 01-1.661 5.766"/><g fill="none" stroke="#000" stroke-linecap="round" stroke-linejoin="round" stroke-miterlimit="10" stroke-width="2"><path d="M36 27.893H18.294C18.294 38.84 11 41.936 11 49s11.193 12.3 25 12.3S61 56.063 61 49s-7.294-10.159-7.294-21.106H36z"/><path d="M14.537 28.893V24.42s11.726-1 21.463-1 21.478 1 21.478 1v4.474m-38.779-8.532h6.254l3.402-2.966m21.746 2.966h-6.254l-1.7-1.483"/><circle cx="33.012" cy="13.702" r="3"/><path d="M38.522 12a3 3 0 01-1.661 5.766M36 27.893H18.294C18.294 38.84 11 41.936 11 49s11.193 12.3 25 12.3S61 56.063 61 49s-7.294-10.159-7.294-21.106H36z"/></g></svg>
